Menda-Circle/apps/48x48/apps/mdmflexiserver.svg

<svg viewBox="0 0 48 48"><defs><linearGradient id="linearGradient3764" x1="1" x2="47" gradientUnits="userSpaceOnUse" gradientTransform="matrix(0,-1,1,0,-1.5e-6,47.999998)"><stop stop-color="#a4c5d4" stop-opacity="1"/><stop offset="1" stop-color="#b2cedb" stop-opacity="1"/></linearGradient><clipPath id="clipPath-023416868"><g transform="translate(0,-1004.3622)"><path d="m -24 13 c 0 1.105 -0.672 2 -1.5 2 -0.828 0 -1.5 -0.895 -1.5 -2 0 -1.105 0.672 -2 1.5 -2 0.828 0 1.5 0.895 1.5 2 z" transform="matrix(15.333333,0,0,11.5,414.99999,878.8622)" fill="#1890d0"/></g></clipPath><clipPath id="clipPath-029055699"><g transform="translate(0,-1004.3622)"><path d="m -24 13 c 0 1.105 -0.672 2 -1.5 2 -0.828 0 -1.5 -0.895 -1.5 -2 0 -1.105 0.672 -2 1.5 -2 0.828 0 1.5 0.895 1.5 2 z" transform="matrix(15.333333,0,0,11.5,414.99999,878.8622)" fill="#1890d0"/></g></clipPath></defs><g><path d="m 36.31 5 c 5.859 4.062 9.688 10.831 9.688 18.5 c 0 12.426 -10.07 22.5 -22.5 22.5 c -7.669 0 -14.438 -3.828 -18.5 -9.688 c 1.037 1.822 2.306 3.499 3.781 4.969 c 4.085 3.712 9.514 5.969 15.469 5.969 c 12.703 0 23 -10.298 23 -23 c 0 -5.954 -2.256 -11.384 -5.969 -15.469 c -1.469 -1.475 -3.147 -2.744 -4.969 -3.781 z m 4.969 3.781 c 3.854 4.113 6.219 9.637 6.219 15.719 c 0 12.703 -10.297 23 -23 23 c -6.081 0 -11.606 -2.364 -15.719 -6.219 c 4.16 4.144 9.883 6.719 16.219 6.719 c 12.703 0 23 -10.298 23 -23 c 0 -6.335 -2.575 -12.06 -6.719 -16.219 z" opacity="0.05"/><path d="m 41.28 8.781 c 3.712 4.085 5.969 9.514 5.969 15.469 c 0 12.703 -10.297 23 -23 23 c -5.954 0 -11.384 -2.256 -15.469 -5.969 c 4.113 3.854 9.637 6.219 15.719 6.219 c 12.703 0 23 -10.298 23 -23 c 0 -6.081 -2.364 -11.606 -6.219 -15.719 z" opacity="0.1"/><path d="m 31.25 2.375 c 8.615 3.154 14.75 11.417 14.75 21.13 c 0 12.426 -10.07 22.5 -22.5 22.5 c -9.708 0 -17.971 -6.135 -21.12 -14.75 a 23 23 0 0 0 44.875 -7 a 23 23 0 0 0 -16 -21.875 z" opacity="0.2"/></g><g><path d="m 24 1 c 12.703 0 23 10.297 23 23 c 0 12.703 -10.297 23 -23 23 -12.703 0 -23 -10.297 -23 -23 0 -12.703 10.297 -23 23 -23 z" fill="url(#linearGradient3764)" fill-opacity="1"/></g><g/><g><g clip-path="url(#clipPath-023416868)"><g transform="translate(1,1)"><g opacity="0.1"><!-- color: #b2cedb --><g><path d="m 11 20 l 0 8 l 26 0 l 0 -8 m -26 0" fill="#000" stroke="none" fill-rule="nonzero" fill-opacity="1"/><path d="m 13.328 21 l 3.344 0 c 0.734 0 1.328 0.598 1.328 1.328 l 0 3.344 c 0 0.734 -0.594 1.328 -1.328 1.328 l -3.344 0 c -0.73 0 -1.328 -0.594 -1.328 -1.328 l 0 -3.344 c 0 -0.73 0.598 -1.328 1.328 -1.328 m 0 0" fill="#000" stroke="none" fill-rule="nonzero" fill-opacity="1"/><path d="m 22.328 21 l 3.344 0 c 0.734 0 1.328 0.598 1.328 1.328 l 0 3.344 c 0 0.734 -0.594 1.328 -1.328 1.328 l -3.344 0 c -0.73 0 -1.328 -0.594 -1.328 -1.328 l 0 -3.344 c 0 -0.73 0.598 -1.328 1.328 -1.328 m 0 0" fill="#000" stroke="none" fill-rule="nonzero" fill-opacity="1"/><path d="m 31.33 21 l 3.352 0 c 0.727 0 1.328 0.598 1.328 1.328 l 0 3.344 c 0 0.734 -0.602 1.328 -1.328 1.328 l -3.352 0 c -0.727 0 -1.32 -0.594 -1.32 -1.328 l 0 -3.344 c 0 -0.73 0.598 -1.328 1.32 -1.328 m 0 0" fill="#000" stroke="none" fill-rule="nonzero" fill-opacity="1"/></g></g></g></g></g><g><g clip-path="url(#clipPath-029055699)"><!-- color: #b2cedb --><g><path d="m 11 20 l 0 8 l 26 0 l 0 -8 m -26 0" fill="#2d2d2d" stroke="none" fill-rule="nonzero" fill-opacity="1"/><path d="m 13.328 21 l 3.344 0 c 0.734 0 1.328 0.598 1.328 1.328 l 0 3.344 c 0 0.734 -0.594 1.328 -1.328 1.328 l -3.344 0 c -0.73 0 -1.328 -0.594 -1.328 -1.328 l 0 -3.344 c 0 -0.73 0.598 -1.328 1.328 -1.328 m 0 0" fill="#f9f9f9" stroke="none" fill-rule="nonzero" fill-opacity="1"/><path d="m 22.328 21 l 3.344 0 c 0.734 0 1.328 0.598 1.328 1.328 l 0 3.344 c 0 0.734 -0.594 1.328 -1.328 1.328 l -3.344 0 c -0.73 0 -1.328 -0.594 -1.328 -1.328 l 0 -3.344 c 0 -0.73 0.598 -1.328 1.328 -1.328 m 0 0" fill="#f9f9f9" stroke="none" fill-rule="nonzero" fill-opacity="1"/><path d="m 31.33 21 l 3.352 0 c 0.727 0 1.328 0.598 1.328 1.328 l 0 3.344 c 0 0.734 -0.602 1.328 -1.328 1.328 l -3.352 0 c -0.727 0 -1.32 -0.594 -1.32 -1.328 l 0 -3.344 c 0 -0.73 0.598 -1.328 1.32 -1.328 m 0 0" fill="#f9f9f9" stroke="none" fill-rule="nonzero" fill-opacity="1"/></g></g></g><g><path d="m 40.03 7.531 c 3.712 4.084 5.969 9.514 5.969 15.469 0 12.703 -10.297 23 -23 23 c -5.954 0 -11.384 -2.256 -15.469 -5.969 4.178 4.291 10.01 6.969 16.469 6.969 c 12.703 0 23 -10.298 23 -23 0 -6.462 -2.677 -12.291 -6.969 -16.469 z" opacity="0.1"/></g></svg>

<svg xmlns="http://www.w3.org/2000/svg" viewBox="0 0 48 48">
 <defs>
  <linearGradient id="linearGradient3764" x1="1" x2="47" gradientUnits="userSpaceOnUse" gradientTransform="matrix(0,-1,1,0,-1.5e-6,47.999998)">
   <stop style="stop-color:#a4c5d4;stop-opacity:1"/>
   <stop offset="1" style="stop-color:#b2cedb;stop-opacity:1"/>
  </linearGradient>
  <clipPath id="clipPath-023416868">
   <g transform="translate(0,-1004.3622)">
    <path d="m -24 13 c 0 1.105 -0.672 2 -1.5 2 -0.828 0 -1.5 -0.895 -1.5 -2 0 -1.105 0.672 -2 1.5 -2 0.828 0 1.5 0.895 1.5 2 z" transform="matrix(15.333333,0,0,11.5,414.99999,878.8622)" style="fill:#1890d0"/>
   </g>
  </clipPath>
  <clipPath id="clipPath-029055699">
   <g transform="translate(0,-1004.3622)">
    <path d="m -24 13 c 0 1.105 -0.672 2 -1.5 2 -0.828 0 -1.5 -0.895 -1.5 -2 0 -1.105 0.672 -2 1.5 -2 0.828 0 1.5 0.895 1.5 2 z" transform="matrix(15.333333,0,0,11.5,414.99999,878.8622)" style="fill:#1890d0"/>
   </g>
  </clipPath>
 </defs>
 <g>
  <path d="m 36.31 5 c 5.859 4.062 9.688 10.831 9.688 18.5 c 0 12.426 -10.07 22.5 -22.5 22.5 c -7.669 0 -14.438 -3.828 -18.5 -9.688 c 1.037 1.822 2.306 3.499 3.781 4.969 c 4.085 3.712 9.514 5.969 15.469 5.969 c 12.703 0 23 -10.298 23 -23 c 0 -5.954 -2.256 -11.384 -5.969 -15.469 c -1.469 -1.475 -3.147 -2.744 -4.969 -3.781 z m 4.969 3.781 c 3.854 4.113 6.219 9.637 6.219 15.719 c 0 12.703 -10.297 23 -23 23 c -6.081 0 -11.606 -2.364 -15.719 -6.219 c 4.16 4.144 9.883 6.719 16.219 6.719 c 12.703 0 23 -10.298 23 -23 c 0 -6.335 -2.575 -12.06 -6.719 -16.219 z" style="opacity:0.05"/>
  <path d="m 41.28 8.781 c 3.712 4.085 5.969 9.514 5.969 15.469 c 0 12.703 -10.297 23 -23 23 c -5.954 0 -11.384 -2.256 -15.469 -5.969 c 4.113 3.854 9.637 6.219 15.719 6.219 c 12.703 0 23 -10.298 23 -23 c 0 -6.081 -2.364 -11.606 -6.219 -15.719 z" style="opacity:0.1"/>
  <path d="m 31.25 2.375 c 8.615 3.154 14.75 11.417 14.75 21.13 c 0 12.426 -10.07 22.5 -22.5 22.5 c -9.708 0 -17.971 -6.135 -21.12 -14.75 a 23 23 0 0 0 44.875 -7 a 23 23 0 0 0 -16 -21.875 z" style="opacity:0.2"/>
 </g>
 <g>
  <path d="m 24 1 c 12.703 0 23 10.297 23 23 c 0 12.703 -10.297 23 -23 23 -12.703 0 -23 -10.297 -23 -23 0 -12.703 10.297 -23 23 -23 z" style="fill:url(#linearGradient3764);fill-opacity:1"/>
 </g>
 <g>
  <g style="clip-path:url(#clipPath-023416868)">
   <g transform="translate(1,1)">
    <g style="opacity:0.1">
     <!-- color: #b2cedb -->
     <g>
      <path d="m 11 20 l 0 8 l 26 0 l 0 -8 m -26 0" style="fill:#000;fill-opacity:1;stroke:none;fill-rule:nonzero"/>
     </g>
    </g>
   </g>
  </g>
 </g>
 <g>
  <g style="clip-path:url(#clipPath-029055699)">
   <!-- color: #b2cedb -->
   <g>
    <path d="m 11 20 0 8 26 0 0 -8 m -26 0" style="fill:#2d2d2d;fill-opacity:1;stroke:none;fill-rule:nonzero"/>
    <path d="m 13.328,21 3.344,0 C 17.406,21 18,21.598 18,22.328 l 0,3.344 C 18,26.406 17.406,27 16.672,27 l -3.344,0 C 12.598,27 12,26.406 12,25.672 l 0,-3.344 C 12,21.598 12.598,21 13.328,21 m 0,0" style="fill:#f9f9f9;fill-opacity:1;stroke:none;fill-rule:nonzero"/>
    <path d="m 22.328,21 3.344,0 C 26.406,21 27,21.598 27,22.328 l 0,3.344 C 27,26.406 26.406,27 25.672,27 l -3.344,0 C 21.598,27 21,26.406 21,25.672 l 0,-3.344 C 21,21.598 21.598,21 22.328,21 m 0,0" style="fill:#f9f9f9;fill-opacity:1;stroke:none;fill-rule:nonzero"/>
    <path d="m 31.33,21 3.352,0 c 0.727,0 1.328,0.598 1.328,1.328 l 0,3.344 C 36.01,26.406 35.408,27 34.682,27 l -3.352,0 c -0.727,0 -1.32,-0.594 -1.32,-1.328 l 0,-3.344 C 30.01,21.598 30.608,21 31.33,21 m 0,0" style="fill:#f9f9f9;fill-opacity:1;stroke:none;fill-rule:nonzero"/>
   </g>
  </g>
 </g>
 <g>
  <path d="m 40.03 7.531 c 3.712 4.084 5.969 9.514 5.969 15.469 0 12.703 -10.297 23 -23 23 c -5.954 0 -11.384 -2.256 -15.469 -5.969 4.178 4.291 10.01 6.969 16.469 6.969 c 12.703 0 23 -10.298 23 -23 0 -6.462 -2.677 -12.291 -6.969 -16.469 z" style="opacity:0.1"/>
 </g>
</svg>
